X: 42544
T: When Are You Coming Over?
R: reel
M: 4/4
K: Amajor
a2 ed cAA=c|B=GGB dBBe|gaed cAA=c|B=GGB cAAg|
gaed cAA=c|B=GGB d2 cd|effe f=gaf|=gBBc d2||
cd|eaaA AccA|eaaA d2 cd|eaaA AccA|B=GBB d2
cd|eaaA AccA|eaaA d2 cd|effe f=gaf|=gBBc d2||

